synths/sZEC.svg

<svg width="480" height="480" viewBox="0 0 480 480" fill="none" xmlns="http://www.w3.org/2000/svg">
<mask id="mask0-358211" mask-type="alpha" maskUnits="userSpaceOnUse" x="0" y="0" width="480" height="480">
<circle cx="240" cy="240" r="240" fill="url(#paint0_linear-907730)"/>
</mask>
<g mask="url(#mask0-358211)">
<circle cx="240" cy="240" r="240" fill="#31D8A4"/>
<circle cx="240" cy="240" r="208" fill="white"/>
</g>
<circle cx="240" cy="240" r="184" fill="#0E052F"/>
<path d="M238.484 56.2793C137.441 56.2793 55.2578 138.57 55.2578 239.744C55.2578 340.919 137.441 423.209 238.484 423.209C339.526 423.209 421.71 340.919 421.71 239.744C421.71 138.57 339.526 56.2793 238.484 56.2793ZM238.484 392.93C154.106 392.93 85.4974 324.233 85.4974 239.744C85.4974 155.256 154.106 86.5584 238.484 86.5584C322.862 86.5584 391.47 155.256 391.47 239.744C391.47 324.233 322.862 392.93 238.484 392.93V392.93Z" fill="#231F20"/>
<path d="M238.484 384.303C318.217 384.303 382.854 319.582 382.854 239.745C382.854 159.907 318.217 95.1865 238.484 95.1865C158.751 95.1865 94.1143 159.907 94.1143 239.745C94.1143 319.582 158.751 384.303 238.484 384.303Z" fill="#F4B728"/>
<path d="M173.127 296.802V324.802H223.12V355.488H253.847V324.802H303.84V287.767H226.29L303.84 182.442V154.442H253.847V123.837H223.12V154.442H173.127V191.558H250.677L173.127 296.802Z" fill="#231F20"/>
<defs>
<linearGradient id="paint0_linear-907730" x1="240" y1="0" x2="240" y2="701.818" gradientUnits="userSpaceOnUse">
<stop stop-color="#08021E"/>
<stop offset="1" stop-color="#1F0777"/>
</linearGradient>
</defs>
</svg>

<svg width="480" height="480" viewBox="0 0 480 480" fill="none" xmlns="http://www.w3.org/2000/svg"><mask id="mask0-358211" maskUnits="userSpaceOnUse" x="0" y="0" width="480" height="480"><circle cx="240" cy="240" r="240" fill="url(#paint0_linear-907730)"/></mask><g mask="url(#mask0-358211)"><circle cx="240" cy="240" r="240" fill="#31D8A4"/><circle cx="240" cy="240" r="208" fill="#fff"/></g><circle cx="240" cy="240" r="184" fill="#0E052F"/><path d="M238.484 56.28c-101.043 0-183.226 82.29-183.226 183.464 0 101.175 82.183 183.465 183.226 183.465 101.042 0 183.226-82.29 183.226-183.465 0-101.174-82.184-183.465-183.226-183.465zm0 336.65c-84.378 0-152.987-68.697-152.987-153.186 0-84.488 68.609-153.186 152.987-153.186S391.47 155.256 391.47 239.744c0 84.489-68.608 153.186-152.986 153.186z" fill="#231F20"/><path d="M238.484 384.303c79.733 0 144.37-64.721 144.37-144.558 0-79.838-64.637-144.559-144.37-144.559s-144.37 64.721-144.37 144.559c0 79.837 64.637 144.558 144.37 144.558z" fill="#F4B728"/><path d="M173.127 296.802v28h49.993v30.686h30.727v-30.686h49.993v-37.035h-77.55l77.55-105.325v-28h-49.993v-30.605H223.12v30.605h-49.993v37.116h77.55l-77.55 105.244z" fill="#231F20"/><defs><linearGradient id="paint0_linear-907730" x1="240" y1="0" x2="240" y2="701.818" gradientUnits="userSpaceOnUse"><stop stop-color="#08021E"/><stop offset="1" stop-color="#1F0777"/></linearGradient></defs></svg>
